; generated by PrusaSlicer 2.0.0+ on 2019-07-31 at 18:57:16

; 

; external perimeters extrusion width = 0.60mm
; perimeters extrusion width = 0.50mm
; infill extrusion width = 0.50mm
; solid infill extrusion width = 0.50mm
; top infill extrusion width = 0.45mm
; first layer extrusion width = 0.42mm

M73 P0 R104
M73 Q0 S105
M201 X1000 Y1000 Z1000 E5000 ; sets maximum accelerations, mm/sec^2
M203 X200 Y200 Z12 E120 ; sets maximum feedrates, mm/sec
M204 P1250 R1250 T1250 ; sets acceleration (P, T) and retract acceleration (R), mm/sec^2
M205 X8.00 Y8.00 Z0.40 E1.50 ; sets the jerk limits, mm/sec
M205 S0 T0 ; sets the minimum extruding and travel feed rate, mm/sec
M107
M115 U3.7.1 ; tell printer latest fw version
G90 ; use absolute coordinates
M83 ; extruder relative mode
M104 S215 ; set extruder temp
M140 S60 ; set bed temp
M190 S60 ; wait for bed temp
M109 S215 ; wait for extruder temp
G28 W ; home all without mesh bed level
G80 ; mesh bed leveling
G1 Y-3.0 F1000.0 ; go outside print area
G92 E0.0
G1 X60.0 E9.0 F1000.0 ; intro line
M73 Q0 S105
M73 P0 R104
G1 X100.0 E12.5 F1000.0 ; intro line
G92 E0.0
M221 S95
M900 K30 ; Filament gcode
G21 ; set units to millimeters
G90 ; use absolute coordinates
M83 ; use relative distances for extrusion
;BEFORE_LAYER_CHANGE
G92 E0.0
;0.2


G1 E-0.80000 F2100.00000
G1 Z0.600 F10800.000
;AFTER_LAYER_CHANGE
;0.2
G1 X66.055 Y70.826
G1 Z0.200
G1 E0.80000 F2100.00000
M204 S1000
G1 F1200
G1 X67.561 Y69.809 E0.05698
G1 X69.869 Y68.624 E0.08132
G1 X70.822 Y68.306 E0.03151
G1 X72.623 Y67.930 E0.05770
G1 X139.746 Y63.948 E2.10829
G1 X176.139 Y63.945 E1.14109
G1 X177.476 Y64.044 E0.04202
G1 X178.435 Y64.257 E0.03080
G1 X179.435 Y64.526 E0.03249
G1 X180.895 Y65.147 E0.04972
G1 X182.453 Y66.097 E0.05724
G1 X183.382 Y66.759 E0.03577
G1 X184.065 Y67.323 E0.02776
G1 X185.209 Y68.504 E0.05155
G1 X186.143 Y69.684 E0.04719
G1 X187.076 Y71.109 E0.05341
G1 X187.879 Y72.622 E0.05369
G1 X188.255 Y73.512 E0.03030
G1 X189.124 Y75.994 E0.08246
G1 X189.606 Y77.932 E0.06260
G1 X190.030 Y80.902 E0.09408
G1 X190.095 Y127.390 E1.45757
G1 X190.035 Y128.943 E0.04873
G1 X189.846 Y130.747 E0.05688
G1 X189.331 Y133.272 E0.08080
G1 X188.686 Y135.316 E0.06719
G1 X187.911 Y137.310 E0.06710
G1 X187.106 Y138.840 E0.05419
G1 X186.179 Y140.271 E0.05347
G1 X185.114 Y141.603 E0.05347
G1 X183.971 Y142.763 E0.05106
G1 X182.218 Y144.066 E0.06848
G1 X180.327 Y145.122 E0.06791
G1 X179.379 Y145.493 E0.03194
G1 X177.564 Y145.942 E0.05863
G1 X176.238 Y146.052 E0.04171
G1 X139.824 Y146.054 E1.14172
G1 X72.646 Y142.071 E2.11002
G1 X70.109 Y141.454 E0.08188
G1 X68.582 Y140.788 E0.05221
G1 X66.662 Y139.615 E0.07056
G1 X65.985 Y139.117 E0.02633
G1 X64.848 Y138.065 E0.04857
G1 X63.841 Y136.924 E0.04774
G1 X62.898 Y135.617 E0.05051
G1 X61.768 Y133.554 E0.07376
G1 X60.639 Y130.544 E0.10080
G1 X60.390 Y129.616 E0.03011
G1 X59.905 Y126.625 E0.09501
G1 X59.837 Y84.978 E1.30581
G1 X59.903 Y83.427 E0.04870
G1 X60.113 Y81.709 E0.05427
G1 X60.612 Y79.543 E0.06967
G1 X61.290 Y77.610 E0.06422
G1 X62.130 Y75.686 E0.06584
G1 X63.339 Y73.765 E0.07118
G1 X63.862 Y73.049 E0.02778
G1 X64.836 Y71.949 E0.04608
G1 X66.011 Y70.866 E0.05009
G1 F8640
G1 X67.561 Y69.809 E-0.43333
G1 X68.820 Y69.163 E-0.32667
G1 E-0.04000 F2100.00000
G1 Z0.800 F10800.000
G1 X142.296 Y112.319
G1 Z0.200
G1 E0.80000 F2100.00000
G1 F1200
G1 X151.051 Y112.027 E0.27464
G1 X153.242 Y112.027 E0.06869
G1 X159.100 Y111.972 E0.18369
G1 X164.948 Y112.027 E0.18338
G1 X173.704 Y112.319 E0.27466
G1 X175.020 Y112.027 E0.04229
G1 X176.829 Y112.014 E0.05670
G1 X177.054 Y112.045 E0.00713
G1 X178.843 Y112.510 E0.05796
G1 X179.885 Y112.997 E0.03607
G1 X180.999 Y113.714 E0.04152
G1 X181.862 Y114.415 E0.03487
G1 X182.762 Y115.331 E0.04026
G1 X183.598 Y116.381 E0.04208
G1 X184.355 Y117.551 E0.04369
G1 X185.022 Y118.820 E0.04495
G1 X185.540 Y120.056 E0.04202
G1 X185.614 Y120.259 E0.00678
G1 X186.428 Y123.146 E0.09404
G1 X186.708 Y125.073 E0.06107
G1 X186.739 Y125.491 E0.01312
G1 X186.818 Y127.878 E0.07489
G1 X186.648 Y130.118 E0.07044
G1 X186.078 Y132.880 E0.08844
G1 X185.603 Y134.342 E0.04819
G1 X185.021 Y135.753 E0.04785
G1 X184.355 Y137.021 E0.04490
G1 X183.598 Y138.191 E0.04369
G1 X182.762 Y139.241 E0.04208
G1 X181.864 Y140.154 E0.04017
G1 X180.847 Y140.964 E0.04076
G1 X178.934 Y142.025 E0.06860
G1 X177.052 Y142.526 E0.06106
G1 X176.829 Y142.557 E0.00708
G1 X175.020 Y142.545 E0.05670
G1 X173.704 Y142.253 E0.04229
G1 X164.948 Y142.544 E0.27468
G1 X163.768 Y142.558 E0.03698
G1 X151.051 Y142.544 E0.39874
G1 X142.296 Y142.253 E0.27465
G1 X140.980 Y142.545 E0.04229
G1 X139.153 Y142.558 E0.05728
G1 X139.035 Y142.549 E0.00369
G1 X138.003 Y142.337 E0.03305
G1 X137.111 Y142.045 E0.02942
G1 X136.084 Y141.557 E0.03566
G1 X135.001 Y140.858 E0.04040
G1 X134.138 Y140.157 E0.03488
G1 X133.238 Y139.241 E0.04026
G1 X132.403 Y138.192 E0.04202
G1 X131.585 Y136.910 E0.04769
G1 X130.978 Y135.752 E0.04100
G1 X130.464 Y134.524 E0.04174
G1 X129.963 Y133.013 E0.04991
G1 X129.602 Y131.569 E0.04666
G1 X129.211 Y128.702 E0.09074
G1 X129.206 Y125.976 E0.08547
G1 X129.354 Y124.437 E0.04846
G1 X129.569 Y123.165 E0.04045
G1 X129.949 Y121.594 E0.05068
G1 X130.464 Y120.048 E0.05109
G1 X130.978 Y118.820 E0.04175
G1 X131.645 Y117.551 E0.04495
G1 X132.402 Y116.381 E0.04369
G1 X133.238 Y115.331 E0.04208
G1 X134.138 Y114.415 E0.04026
G1 X135.000 Y113.714 E0.03484
G1 X136.158 Y112.974 E0.04310
G1 X137.155 Y112.510 E0.03448
G1 X139.050 Y112.022 E0.06135
G1 X139.153 Y112.014 E0.00323
G1 X140.980 Y112.027 E0.05728
G1 X142.238 Y112.306 E0.04041
G1 X142.319 Y111.937 F10800.000
G1 F1200
G1 X151.045 Y111.650 E0.27372
G1 X153.240 Y111.650 E0.06883
G1 X159.100 Y111.595 E0.18375
G1 X164.957 Y111.650 E0.18364
G1 X173.669 Y111.940 E0.27331
G1 X174.978 Y111.650 E0.04205
G1 X176.853 Y111.637 E0.05881
G1 X177.128 Y111.675 E0.00868
G1 X178.972 Y112.154 E0.05974
G1 X180.068 Y112.667 E0.03795
G1 X181.221 Y113.408 E0.04297
G1 X182.116 Y114.136 E0.03618
G1 X183.045 Y115.080 E0.04154
G1 X183.905 Y116.160 E0.04328
G1 X184.681 Y117.360 E0.04481
G1 X185.363 Y118.659 E0.04600
G1 X185.891 Y119.918 E0.04280
G1 X185.973 Y120.142 E0.00748
G1 X186.799 Y123.082 E0.09576
G1 X187.083 Y125.032 E0.06178
G1 X187.116 Y125.471 E0.01378
G1 X187.195 Y127.885 E0.07575
G1 X187.020 Y130.178 E0.07209
G1 X186.443 Y132.977 E0.08962
G1 X185.957 Y134.473 E0.04930
G1 X185.363 Y135.913 E0.04885
G1 X184.681 Y137.211 E0.04598
G1 X183.905 Y138.411 E0.04481
G1 X183.045 Y139.491 E0.04328
G1 X182.117 Y140.435 E0.04151
G1 X181.058 Y141.279 E0.04246
G1 X179.076 Y142.377 E0.07104
G1 X177.127 Y142.897 E0.06324
G1 X176.853 Y142.935 E0.00866
G1 X174.978 Y142.921 E0.05881
G1 X173.669 Y142.631 E0.04205
G1 X164.956 Y142.921 E0.27332
G1 X163.770 Y142.935 E0.03719
G1 X151.045 Y142.921 E0.39901
G1 X142.331 Y142.631 E0.27335
G1 X141.022 Y142.921 E0.04205
G1 X139.140 Y142.935 E0.05902
G1 X138.983 Y142.923 E0.00493
G1 X137.906 Y142.702 E0.03448
G1 X136.971 Y142.396 E0.03085
G1 X135.900 Y141.887 E0.03718
G1 X134.779 Y141.164 E0.04181
G1 X133.884 Y140.436 E0.03619
G1 X132.955 Y139.491 E0.04154
G1 X132.095 Y138.412 E0.04326
G1 X131.259 Y137.099 E0.04881
G1 X130.637 Y135.912 E0.04200
G1 X130.110 Y134.656 E0.04271
G1 X129.600 Y133.118 E0.05081
G1 X129.231 Y131.641 E0.04776
G1 X128.834 Y128.728 E0.09218
G1 X128.829 Y125.958 E0.08684
G1 X128.980 Y124.388 E0.04946
G1 X129.199 Y123.089 E0.04129
G1 X129.587 Y121.490 E0.05159
G1 X130.110 Y119.915 E0.05204
G1 X130.637 Y118.659 E0.04271
G1 X131.319 Y117.360 E0.04600
G1 X132.095 Y116.160 E0.04481
G1 X132.955 Y115.080 E0.04328
G1 X133.884 Y114.136 E0.04154
G1 X134.779 Y113.408 E0.03617
G1 X135.976 Y112.642 E0.04456
G1 X137.028 Y112.154 E0.03635
G1 X138.988 Y111.648 E0.06349
G1 X139.140 Y111.637 E0.00476
G1 X141.022 Y111.650 E0.05902
G1 X142.261 Y111.924 E0.03978
G1 X142.516 Y112.286 F10800.000
G1 F8640
G1 X145.551 Y111.822 E-0.76000
G1 E-0.04000 F2100.00000
G1 Z0.800 F10800.000
G1 X131.589 Y136.673
G1 Z0.200
G1 E0.80000 F2100.00000
G1 F1200
G1 X136.229 Y141.313 E0.20616
G1 X137.241 Y141.790 E0.03512
G1 X131.403 Y135.953 E0.25935
G1 X131.234 Y135.631 E0.01140
G1 X130.959 Y134.975 E0.02236
G1 X138.035 Y142.050 E0.31436
G1 X138.713 Y142.194 E0.02177
G1 X130.622 Y134.103 E0.35946
G1 X130.357 Y133.304 E0.02646
G1 X139.327 Y142.274 E0.39850
G1 X139.857 Y142.270 E0.01667
G1 X130.139 Y132.551 E0.43178
G1 X129.960 Y131.839 E0.02307
G1 X140.388 Y142.266 E0.46327
G1 X140.918 Y142.262 E0.01667
G1 X129.834 Y131.177 E0.49248
G1 X129.749 Y130.559 E0.01961
G1 X141.361 Y142.171 E0.51588
G1 X141.798 Y142.074 E0.01407
G1 X129.665 Y129.940 E0.53905
G1 X129.581 Y129.322 E0.01961
G1 X142.236 Y141.977 E0.56223
G1 X142.779 Y141.986 E0.01708
G1 X129.496 Y128.703 E0.59012
G1 X129.493 Y128.165 E0.01690
G1 X143.332 Y142.004 E0.61484
G1 X143.885 Y142.023 E0.01737
G1 X129.492 Y127.630 E0.63944
G1 X129.491 Y127.095 E0.01681
G1 X144.437 Y142.041 E0.66403
G1 X144.990 Y142.060 E0.01737
G1 X129.490 Y126.560 E0.68862
G1 X129.489 Y126.024 E0.01681
G1 X145.543 Y142.078 E0.71322
G1 X146.096 Y142.096 E0.01737
G1 X129.533 Y125.534 E0.73583
G1 X129.580 Y125.046 E0.01538
G1 X146.648 Y142.115 E0.75830
G1 X147.201 Y142.133 E0.01737
G1 X129.627 Y124.559 E0.78077
G1 X129.699 Y124.097 E0.01470
G1 X147.754 Y142.152 E0.80214
G1 X148.306 Y142.170 E0.01737
G1 X129.776 Y123.639 E0.82326
M73 Q1 S104
M73 P1 R103
G1 X129.855 Y123.185 E0.01450
G1 X148.859 Y142.188 E0.84429
G1 X149.412 Y142.207 E0.01737
G1 X129.959 Y122.754 E0.86422
G1 X130.064 Y122.324 E0.01390
G1 X149.964 Y142.225 E0.88415
G1 X150.517 Y142.244 E0.01737
G1 X130.168 Y121.894 E0.90407
G1 X130.286 Y121.478 E0.01359
G1 X151.069 Y142.262 E0.92336
G1 X151.604 Y142.262 E0.01680
G1 X130.419 Y121.077 E0.94119
G1 X130.553 Y120.676 E0.01327
G1 X152.139 Y142.263 E0.95903
G1 X152.674 Y142.263 E0.01680
G1 X130.686 Y120.275 E0.97687
G1 X130.836 Y119.891 E0.01296
G1 X153.209 Y142.264 E0.99397
G1 X153.744 Y142.264 E0.01680
G1 X130.994 Y119.514 E1.01072
G1 X131.152 Y119.138 E0.01282
G1 X154.279 Y142.265 E1.02747
G1 X154.813 Y142.265 E0.01680
G1 X131.322 Y118.774 E1.04367
G1 X131.506 Y118.423 E0.01243
G1 X155.348 Y142.266 E1.05926
G1 X155.883 Y142.267 E0.01680
G1 X131.690 Y118.073 E1.07486
G1 X131.874 Y117.723 E0.01243
G1 X156.418 Y142.267 E1.09045
G1 X156.953 Y142.268 E0.01680
G1 X132.081 Y117.396 E1.10498
G1 X132.291 Y117.072 E0.01214
G1 X157.488 Y142.268 E1.11942
G1 X158.023 Y142.269 E0.01680
G1 X132.501 Y116.747 E1.13386
G1 X132.721 Y116.433 E0.01205
G1 X158.558 Y142.269 E1.14784
G1 X159.092 Y142.270 E0.01680
G1 X132.958 Y116.136 E1.16108
G1 X133.195 Y115.838 E0.01194
G1 X159.627 Y142.271 E1.17432
G1 X160.162 Y142.271 E0.01680
G1 X133.432 Y115.541 E1.18756
G1 X133.695 Y115.269 E0.01187
G1 X160.697 Y142.272 E1.19965
G1 X161.232 Y142.272 E0.01680
G1 X133.959 Y115.000 E1.21165
G1 X134.224 Y114.730 E0.01187
G1 X161.767 Y142.273 E1.22364
G1 X162.302 Y142.273 E0.01680
G1 X134.507 Y114.479 E1.23483
G1 X134.802 Y114.240 E0.01193
G1 X162.836 Y142.274 E1.24550
G1 X163.371 Y142.274 E0.01680
G1 X135.097 Y114.000 E1.25616
G1 X135.416 Y113.784 E0.01209
G1 X163.904 Y142.273 E1.26569
G1 X164.433 Y142.267 E0.01660
G1 X135.741 Y113.576 E1.27469
G1 X136.067 Y113.367 E0.01215
G1 X164.961 Y142.261 E1.28367
G1 X165.478 Y142.244 E0.01625
G1 X136.405 Y113.171 E1.29164
G1 X136.770 Y113.001 E0.01264
G1 X165.995 Y142.227 E1.29840
G1 X166.512 Y142.209 E0.01625
G1 X137.135 Y112.832 E1.30516
M73 Q1 S103
M73 P2 R102
G1 X137.251 Y112.778 E0.00404
G1 X137.540 Y112.703 E0.00938
G1 X167.029 Y142.192 E1.31012
G1 X167.546 Y142.175 E0.01625
G1 X137.965 Y112.594 E1.31422
G1 X138.390 Y112.484 E0.01378
G1 X168.063 Y142.158 E1.31832
G1 X168.580 Y142.140 E0.01625
G1 X138.814 Y112.374 E1.32243
G1 X139.086 Y112.304 E0.00880
G1 X139.279 Y112.305 E0.00608
G1 X169.097 Y142.123 E1.32475
G1 X169.615 Y142.106 E0.01625
G1 X139.815 Y112.306 E1.32392
G1 X140.351 Y112.308 E0.01683
G1 X170.132 Y142.089 E1.32309
G1 X170.649 Y142.072 E0.01625
G1 X140.886 Y112.309 E1.32226
G1 X141.555 Y112.444 E0.02144
G1 X171.166 Y142.054 E1.31551
G1 X171.683 Y142.037 E0.01625
G1 X142.242 Y112.596 E1.30799
G1 X142.766 Y112.586 E0.01647
G1 X172.200 Y142.020 E1.30768
G1 X172.717 Y142.003 E0.01625
G1 X143.283 Y112.569 E1.30768
G1 X143.800 Y112.551 E0.01625
G1 X173.234 Y141.986 E1.30768
G1 X173.758 Y141.975 E0.01647
G1 X144.317 Y112.534 E1.30799
G1 X144.834 Y112.517 E0.01625
G1 X174.445 Y142.127 E1.31551
G1 X175.052 Y142.262 E0.01956
G1 X175.114 Y142.263 E0.00194
G1 X145.351 Y112.500 E1.32228
G1 X145.868 Y112.483 E0.01625
G1 X175.652 Y142.266 E1.32321
G1 X176.190 Y142.270 E0.01690
G1 X146.386 Y112.465 E1.32415
G1 X146.903 Y112.448 E0.01625
G1 X176.728 Y142.274 E1.32508
G1 X176.996 Y142.249 E0.00845
G1 X177.187 Y142.198 E0.00619
G1 X147.420 Y112.431 E1.32247
G1 X147.937 Y112.414 E0.01625
G1 X177.608 Y142.085 E1.31824
G1 X178.030 Y141.973 E0.01372
G1 X148.454 Y112.397 E1.31401
G1 X148.971 Y112.379 E0.01625
G1 X178.452 Y141.861 E1.30978
G1 X178.865 Y141.739 E0.01353
G1 X149.488 Y112.362 E1.30516
G1 X150.005 Y112.345 E0.01625
G1 X179.209 Y141.549 E1.29746
G1 X179.553 Y141.358 E0.01235
G1 X150.522 Y112.328 E1.28976
G1 X151.039 Y112.310 E0.01625
G1 X179.897 Y141.168 E1.28206
G1 X180.240 Y140.977 E0.01235
G1 X151.573 Y112.310 E1.27362
G1 X152.107 Y112.310 E0.01679
G1 X180.584 Y140.787 E1.26515
M73 Q2 S102
M73 P2 R101
G1 X180.690 Y140.728 E0.00379
G1 X180.896 Y140.564 E0.00828
G1 X152.642 Y112.310 E1.25526
G1 X153.176 Y112.310 E0.01679
G1 X181.193 Y140.327 E1.24474
G1 X181.491 Y140.090 E0.01195
G1 X153.706 Y112.306 E1.23441
G1 X154.235 Y112.301 E0.01663
G1 X181.776 Y139.841 E1.22355
G1 X182.041 Y139.572 E0.01187
G1 X154.765 Y112.296 E1.21180
G1 X155.294 Y112.291 E0.01663
G1 X182.305 Y139.302 E1.20005
G1 X182.568 Y139.031 E0.01187
G1 X155.823 Y112.286 E1.18821
G1 X156.353 Y112.281 E0.01663
G1 X182.805 Y138.733 E1.17521
G1 X183.042 Y138.436 E0.01194
G1 X156.882 Y112.276 E1.16222
G1 X157.411 Y112.271 E0.01663
G1 X183.279 Y138.138 E1.14922
G1 X183.499 Y137.824 E0.01205
G1 X157.941 Y112.266 E1.13549
G1 X158.470 Y112.261 E0.01663
G1 X183.709 Y137.500 E1.12129
G1 X183.919 Y137.175 E0.01214
G1 X158.999 Y112.256 E1.10710
G1 X159.537 Y112.259 E0.01688
G1 X184.126 Y136.849 E1.09245
G1 X184.310 Y136.498 E0.01243
G1 X160.076 Y112.264 E1.07666
G1 X160.616 Y112.269 E0.01694
G1 X184.494 Y136.148 E1.06087
G1 X184.678 Y135.798 E0.01243
G1 X161.155 Y112.274 E1.04508
G1 X161.694 Y112.279 E0.01694
G1 X184.847 Y135.432 E1.02863
G1 X185.003 Y135.054 E0.01285
G1 X162.234 Y112.284 E1.01160
G1 X162.773 Y112.289 E0.01694
G1 X185.160 Y134.676 E0.99458
G1 X185.316 Y134.298 E0.01285
G1 X163.312 Y112.295 E0.97755
G1 X163.852 Y112.300 E0.01694
G1 X185.450 Y133.898 E0.95956
G1 X185.581 Y133.495 E0.01332
G1 X164.391 Y112.305 E0.94142
G1 X164.930 Y112.310 E0.01694
G1 X185.712 Y133.091 E0.92327
G1 X185.831 Y132.676 E0.01357
G1 X165.483 Y112.328 E0.90402
G1 X166.036 Y112.346 E0.01737
G1 X185.923 Y132.233 E0.88353
G1 X186.014 Y131.790 E0.01421
G1 X166.588 Y112.365 E0.86303
G1 X167.141 Y112.383 E0.01737
G1 X186.105 Y131.347 E0.84254
G1 X186.197 Y130.905 E0.01421
G1 X167.694 Y112.401 E0.82205
G1 X168.246 Y112.420 E0.01737
G1 X186.288 Y130.462 E0.80155
G1 X186.375 Y130.014 E0.01432
G1 X168.799 Y112.438 E0.78086
G1 X169.352 Y112.457 E0.01737
G1 X186.415 Y129.520 E0.75808
G1 X186.451 Y129.022 E0.01569
G1 X169.904 Y112.475 E0.73513
G1 X170.457 Y112.493 E0.01737
G1 X186.487 Y128.524 E0.71218
G1 X186.523 Y128.025 E0.01569
G1 X171.010 Y112.512 E0.68923
G1 X171.563 Y112.530 E0.01737
G1 X186.522 Y127.490 E0.66460
G1 X186.504 Y126.937 E0.01737
G1 X172.115 Y112.549 E0.63924
G1 X172.668 Y112.567 E0.01737
G1 X186.485 Y126.385 E0.61388
M73 Q3 S101
M73 P3 R100
G1 X186.467 Y125.832 E0.01737
G1 X173.221 Y112.585 E0.58851
G1 X173.764 Y112.595 E0.01708
G1 X186.439 Y125.270 E0.56311
G1 X186.362 Y124.658 E0.01936
G1 X174.202 Y112.498 E0.54026
G1 X174.639 Y112.401 E0.01407
G1 X186.271 Y124.033 E0.51678
G1 X186.180 Y123.407 E0.01986
G1 X175.082 Y112.309 E0.49307
G1 X175.612 Y112.305 E0.01667
G1 X186.009 Y122.702 E0.46189
G1 X185.799 Y121.958 E0.02428
G1 X176.143 Y112.302 E0.42901
